svgs/duotone/mug-marshmallows.svg

<svg xmlns="http://www.w3.org/2000/svg" viewBox="0 0 512 512"><!-- Font Awesome Pro 6.0.0-alpha2 by @fontawesome - https://fontawesome.com License - https://fontawesome.com/license (Commercial License) --><defs><style>.fa-secondary{opacity:.4}</style></defs><path d="M200.875 44.75C195 37.5 186.375 32.375 176.25 32.375H64C46.25 32.375 32 46.75 32 64.375V128.25H162.125C156.625 107.25 161.875 83.75 178.5 67.25L200.875 44.75ZM343.25 89.75L294.75 41.375C282.25 28.875 262 28.875 249.5 41.375L201 89.75C190.625 100.25 189.5 116.125 196.75 128.375H347.75C354.875 116.125 353.75 100.25 343.25 89.75ZM96 224C96 241.674 110.328 256 128 256C145.674 256 160 241.674 160 224V160H96V224Z" class="fa-secondary"/><path d="M400 160.25H160V223.75C160 241.5 145.75 255.75 128 255.75S96 241.5 96 223.75V160.25H32C14.25 160.25 0 174.625 0 192.25V384.125C0 437.125 43 480 96 480H288C341 480 384 437.125 384 384.125H400C461.75 384.125 512 333.875 512 272.25C512 210.5 461.75 160.25 400 160.25ZM400 320.25H384V224.25H400C426.5 224.25 448 245.75 448 272.25C448 298.625 426.5 320.25 400 320.25Z" class="fa-primary"/></svg>

<svg xmlns="http://www.w3.org/2000/svg" viewBox="0 0 512 512"><!--! Font Awesome Pro 6.3.0 by @fontawesome - https://fontawesome.com License - https://fontawesome.com/license (Commercial License) Copyright 2023 Fonticons, Inc. --><defs><style>.fa-secondary{opacity:.4}</style></defs><path class="fa-primary" d="M400 160.1L160 160.2v63.67c0 17.75-14.25 32-32 32s-32-14.25-32-32v-63.67L32 160.1c-17.75 0-32 14.38-32 32v191.9C0 437 43 480 96 480h192c53 0 96-42.95 96-95.95l16 .0125c61.75 0 112-50.31 112-111.9C512 210.4 461.8 160.1 400 160.1zM400 320.3H384v-96h16c26.5 0 48 21.5 48 48C448 298.6 426.5 320.3 400 320.3z"/><path class="fa-secondary" d="M200.9 44.75C195 37.5 186.4 32.38 176.3 32.38H64c-17.75 0-32 14.38-32 32v63.81l130.1 .0625c-5.5-21-.25-44.5 16.38-61L200.9 44.75zM343.3 89.75l-48.5-48.38c-12.5-12.5-32.75-12.5-45.25 0L201 89.75c-10.38 10.5-11.5 26.38-4.25 38.63h151C354.9 116.1 353.8 100.3 343.3 89.75zM96 223.8c0 17.67 14.33 32 32 32c17.67 0 32-14.33 32-32v-63.67H96V223.8z"/></svg>
